assets/payment/icon3.svg

<svg width="45" height="46" viewBox="0 0 45 46" fill="none" xmlns="http://www.w3.org/2000/svg">
<path d="M11.2129 40.5079C12.7248 41.4181 12.9978 43.5049 11.7358 44.7669C11.2427 45.26 10.5612 45.5656 9.81245 45.5656H2.79678C0.396707 45.5656 -0.848986 42.6417 0.873453 40.9174C1.10798 40.6828 1.38576 40.4925 1.69046 40.3532L1.55974 28.6238C1.52706 25.624 5.77741 20.4144 7.77955 18.5785V3.44567C7.77955 2.08079 8.89356 0.96582 10.2565 0.96582H33.3528C34.7177 0.96582 35.8297 2.07983 35.8297 3.44567V20.8748C36.3497 21.0901 36.7015 21.5995 36.7015 22.1801L36.715 22.7635C36.7208 22.7741 36.7342 22.7799 36.7506 22.7856C37.4513 22.974 38.1289 23.2547 38.7556 23.617L38.8373 23.6065C39.2573 23.1864 39.5514 22.8106 40.2185 22.8106C40.578 22.8106 40.9403 22.9471 41.2162 23.222L42.2024 24.2082C42.7531 24.7589 42.7531 25.6548 42.2024 26.2055L41.7968 26.6255C41.7939 26.639 41.7968 26.6525 41.8073 26.6688C42.1697 27.2955 42.4504 27.9741 42.6388 28.6738L42.7041 28.7228C43.2981 28.7228 43.772 28.6652 44.2439 29.1371C44.4996 29.3928 44.6582 29.7446 44.6582 30.1339V31.5266C44.6582 32.3061 44.0238 32.9376 43.2443 32.9376H42.7051L42.6397 32.9867C42.4513 33.6922 42.1707 34.3621 41.8083 34.9946L41.8189 35.0763V35.0734C42.2408 35.4953 42.6147 35.7875 42.6147 36.4546C42.6147 36.8112 42.4754 37.1822 42.2005 37.4513L42.2033 37.4542L41.2162 38.4375C40.6654 38.9883 39.7696 38.9883 39.2189 38.4375L38.7988 38.0319C38.7883 38.029 38.7719 38.0348 38.7556 38.0425C38.1289 38.4048 37.4503 38.6884 36.7506 38.8739L36.7015 38.9393C36.7015 39.5361 36.7592 40.0071 36.2873 40.4791C36.0316 40.7347 35.6798 40.8933 35.2905 40.8933H33.8978C33.1182 40.8933 32.4867 40.2609 32.4867 39.4823L32.4733 38.897C32.4675 38.8893 32.4541 38.8806 32.4377 38.8749C31.7351 38.6893 31.0594 38.4058 30.4298 38.0434L30.35 38.053C29.9281 38.475 29.6359 38.8518 28.9688 38.8518C28.6065 38.8518 28.2441 38.7124 27.9692 38.4375L26.9859 37.4542C26.7408 37.2091 26.6072 36.8958 26.5774 36.5767H13.5178C13.2295 36.9909 12.8805 37.4379 12.4692 37.9339C11.8367 38.6913 11.333 39.5631 11.2129 40.5079ZM9.81245 41.4643H2.79678C1.58953 41.4643 0.946503 42.9387 1.82406 43.8153C2.07493 44.0633 2.41807 44.219 2.79678 44.219H9.81245C11.0197 44.219 11.6627 42.7446 10.7852 41.868C10.5343 41.62 10.1912 41.4643 9.81245 41.4643ZM9.94894 39.9389C10.1719 38.8902 10.7333 37.9175 11.4397 37.0726C13.81 34.2304 13.6764 33.2087 13.2246 29.6994L12.868 26.6919C12.7921 25.9421 12.4317 25.4164 11.8213 25.7413C11.5435 25.8854 11.2927 26.1824 11.1543 26.6073V32.1245C11.1543 32.4945 10.8515 32.7973 10.4814 32.7973H8.3428C7.97275 32.7973 7.67286 32.4945 7.67286 32.1245C7.67286 26.5688 7.71419 25.9393 7.71899 20.5336C6.67611 21.6485 5.50731 23.123 4.57304 24.5936C3.59744 26.1305 2.88905 27.6261 2.90059 28.6123L3.02842 39.9389H9.94894ZM9.12617 31.4516H9.80764V26.5121C9.80764 26.4525 9.81533 26.392 9.83456 26.3324C10.096 25.3981 10.7227 24.7003 11.4743 24.4283V22.4771C11.4743 22.1061 11.7771 21.8043 12.1472 21.8043H15.5719V19.1043C15.5719 18.7333 15.8717 18.4315 16.2447 18.4315H19.6665V15.9189C19.6665 15.5479 19.9693 15.2461 20.3393 15.2461H23.764V13.2219C23.764 12.8489 24.0639 12.549 24.4368 12.549H27.8587V11.0861C27.8587 10.7132 28.1614 10.4133 28.5315 10.4133H32.629C33 10.4133 33.3018 10.7132 33.3018 11.0861V20.8998C33.6719 20.7258 34.0813 20.7662 34.4841 20.7662V3.44567C34.4841 2.82475 33.9718 2.31244 33.3508 2.31244H10.2565C9.63559 2.31244 9.12617 2.82475 9.12617 3.44567V31.4516ZM12.82 24.4225C13.6101 24.7224 14.0974 25.5154 14.2012 26.5611C14.2829 27.3733 14.3675 28.0846 14.4463 28.719H15.5719V23.1499H12.82V24.4225ZM14.6212 30.0647C14.9183 32.3965 15.0249 33.7104 14.3166 35.2301H27.2118C27.5415 34.9004 27.4021 35.2329 26.8984 34.018C26.7591 33.6825 26.6428 33.3365 26.5495 32.9857L26.4842 32.9396C25.8873 32.9396 25.4163 32.9972 24.9443 32.5253C24.6887 32.2696 24.5301 31.9149 24.5301 31.5257L24.533 30.0656H14.6212V30.0647ZM34.6062 25.2501C37.6742 25.2501 40.1647 27.7376 40.1647 30.8057C40.1647 33.8767 37.6742 36.3642 34.6062 36.3642C31.5352 36.3642 29.0476 33.8767 29.0476 30.8057C29.0476 27.7376 31.5352 25.2501 34.6062 25.2501ZM37.5839 27.828C35.9384 26.1853 33.2711 26.1853 31.6274 27.828C29.9819 29.4735 29.9819 32.1408 31.6274 33.7864C33.2701 35.429 35.9374 35.429 37.5839 33.7864C39.2304 32.1408 39.2304 29.4735 37.5839 27.828ZM26.5034 28.719L26.5495 28.6729C26.7379 27.9702 27.0157 27.2974 27.3809 26.6678L27.3704 26.5861C26.9484 26.1661 26.5716 25.872 26.5716 25.2049C26.5716 24.8502 26.711 24.4773 26.9859 24.2082L27.8606 23.3335V13.8956H25.1116V28.72H26.5034V28.719ZM29.2062 22.8279C30.0021 22.9644 30.2741 23.7084 30.4298 23.6151C30.9171 23.3345 31.4246 23.1057 31.9581 22.9288V11.758H29.2062V22.8279ZM35.2905 22.1118H33.8978L33.8266 22.1801V22.7193H33.8295C33.8295 23.3652 33.3855 23.9371 32.7751 24.0842C32.2388 24.2149 31.5765 24.5042 31.1026 24.7791C30.5471 25.1001 29.8521 25.0079 29.3994 24.5561C29.337 24.4965 29.0265 24.1553 28.9688 24.1553V24.1524L28.9227 24.1745L27.9365 25.1578V25.1549V25.2501L28.321 25.6346L28.3181 25.6374C28.7727 26.0921 28.8631 26.7822 28.5411 27.3407C28.2383 27.8635 28.0048 28.4278 27.8462 29.0189C27.6799 29.6398 27.1243 30.0675 26.4842 30.0675C26.3967 30.0675 25.9363 30.0454 25.8959 30.0868C25.8853 30.1002 25.8767 30.1166 25.8767 30.1329V31.5257C25.8767 31.7352 26.6774 31.3728 27.3425 31.8823C27.5847 32.0678 27.7645 32.3292 27.8462 32.6397C28.0038 33.2308 28.2383 33.795 28.5411 34.3208C28.865 34.8763 28.7727 35.5713 28.32 36.024C28.2518 36.0922 27.9163 36.395 27.9163 36.4546C27.9163 36.4738 27.924 36.4902 27.9355 36.5007L28.9217 37.4869C29.0688 37.634 29.3764 36.8112 30.2136 36.7026C30.5134 36.6613 30.8239 36.7218 31.1017 36.8823C31.6274 37.1851 32.1917 37.4187 32.7828 37.5773C33.4008 37.7435 33.8295 38.2991 33.8295 38.9393C33.8295 39.0267 33.8103 39.4871 33.8516 39.5275C33.8622 39.5381 33.8785 39.5467 33.8978 39.5467H35.2905C35.4972 39.5467 35.1348 38.7461 35.6471 38.0809C35.8326 37.8387 36.0941 37.659 36.4045 37.5773C36.9957 37.4196 37.5599 37.1851 38.0828 36.8823C38.6412 36.5584 39.339 36.6536 39.7888 37.1034C39.8484 37.1659 40.1589 37.5071 40.2195 37.5071C40.2358 37.5071 40.255 37.4994 40.2656 37.4879L41.2489 36.5017L41.2518 36.5046L41.2489 36.4094L40.8673 36.0249C40.4146 35.5703 40.3223 34.8783 40.6443 34.3217C40.9471 33.796 41.1835 33.2318 41.3392 32.6406C41.5055 32.0226 42.0611 31.5939 42.7041 31.5939V31.5968H43.2433V31.5939L43.3116 31.5257V30.1329C43.3116 29.9262 42.5109 30.2886 41.8458 29.7763C41.6036 29.5908 41.4238 29.3294 41.3392 29.0189C41.1816 28.4278 40.9471 27.8635 40.6443 27.3407C40.3233 26.7822 40.4184 26.0844 40.8673 25.6355C40.9269 25.5759 41.2681 25.2645 41.2681 25.2049C41.2681 25.1886 41.2623 25.1722 41.2489 25.1588L40.2656 24.1755C40.1185 24.0284 39.811 24.8483 38.9738 24.9598C38.6739 24.9983 38.3605 24.9406 38.0828 24.7801C37.5599 24.4773 36.9928 24.2437 36.4045 24.0851C35.7836 23.9189 35.3559 23.3633 35.3559 22.7203C35.3559 22.6357 35.378 22.1753 35.3367 22.132C35.3232 22.1195 35.3069 22.1118 35.2905 22.1118ZM23.0181 6.19177C22.6481 6.19177 22.3482 5.889 22.3482 5.51894C22.3482 5.14792 22.6481 4.84611 23.0181 4.84611H25.5576C25.9305 4.84611 26.2304 5.14889 26.2304 5.51894C26.2304 5.889 25.9305 6.19177 25.5576 6.19177H23.0181ZM23.0181 9.15317C22.6481 9.15317 22.3482 8.85328 22.3482 8.48034C22.3482 8.11029 22.6481 7.80752 23.0181 7.80752H28.2191C28.592 7.80752 28.8919 8.11029 28.8919 8.48034C28.8919 8.85328 28.592 9.15317 28.2191 9.15317H23.0181ZM29.8137 9.15317C29.4408 9.15317 29.1409 8.85328 29.1409 8.48034C29.1409 8.11029 29.4408 7.80752 29.8137 7.80752H32.9712C33.3441 7.80752 33.644 8.11029 33.644 8.48034C33.644 8.85328 33.3441 9.15317 32.9712 9.15317H29.8137ZM27.2771 6.19177C26.9061 6.19177 26.6072 5.889 26.6072 5.51894C26.6072 5.14792 26.9071 4.84611 27.2771 4.84611H32.9712C33.3441 4.84611 33.644 5.14889 33.644 5.51894C33.644 5.889 33.3441 6.19177 32.9712 6.19177H27.2771ZM19.6838 9.69047L16.4331 9.71739V12.971C18.1007 12.6874 19.4137 11.3629 19.6838 9.69047ZM15.0874 8.39864V5.13447C13.3986 5.42282 12.0741 6.77425 11.8261 8.47458L15.0874 8.39864ZM16.4331 8.3775L19.6723 8.35058C19.3781 6.70792 18.0786 5.41609 16.4331 5.13543V8.3775ZM15.0874 12.971V9.73949L11.8588 9.81543C12.1722 11.4312 13.463 12.6951 15.0874 12.971ZM15.7602 3.73114C18.6919 3.73114 21.0814 6.11007 21.0814 9.05225C21.0814 11.9925 18.6976 14.3734 15.7602 14.3734C12.82 14.3734 10.4391 11.9925 10.4391 9.05225C10.4391 6.11584 12.82 3.73114 15.7602 3.73114ZM19.6675 19.7771H16.9185V28.719H19.6675V19.7771ZM23.765 16.5918H21.0131V28.719H23.765V16.5918Z" fill="#2D31FA"/>
</svg>

<svg xmlns="http://www.w3.org/2000/svg" width="45" height="46" fill="none" viewBox="0 0 45 46"><path fill="#2d31fa" d="M11.213 40.508a2.72 2.72 0 0 1 .523 4.259 2.72 2.72 0 0 1-1.924.799H2.797c-2.4 0-3.646-2.924-1.924-4.649a2.8 2.8 0 0 1 .817-.564l-.13-11.73c-.033-2.999 4.217-8.209 6.22-10.045V3.446a2.485 2.485 0 0 1 2.477-2.48h23.096a2.483 2.483 0 0 1 2.477 2.48v17.429c.52.215.872.724.872 1.305l.013.584q.01.014.036.022c.7.188 1.378.469 2.005.831l.081-.01c.42-.42.714-.796 1.381-.796.36 0 .722.136.998.411l.986.986c.551.55.551 1.447 0 1.998l-.405.42q-.005.019.01.043a8.4 8.4 0 0 1 .832 2.005l.065.049c.594 0 1.068-.058 1.54.414.256.256.414.608.414.997v1.393c0 .78-.634 1.41-1.414 1.41h-.539l-.065.05a8.4 8.4 0 0 1-.832 2.008l.01.081v-.003c.423.422.797.715.797 1.382 0 .356-.14.727-.415.996l.003.003-.987.983a1.413 1.413 0 0 1-1.997 0l-.42-.405c-.01-.003-.027.003-.043.01a8.3 8.3 0 0 1-2.005.832l-.05.065c0 .597.058 1.068-.414 1.54a1.4 1.4 0 0 1-.996.414h-1.393a1.41 1.41 0 0 1-1.411-1.41l-.014-.586a.1.1 0 0 0-.035-.022 8.3 8.3 0 0 1-2.008-.832l-.08.01c-.422.422-.714.799-1.381.799-.363 0-.725-.14-1-.414l-.983-.984a1.42 1.42 0 0 1-.409-.877h-13.06c-.287.414-.636.86-1.048 1.357-.632.757-1.136 1.63-1.256 2.574m-1.4.956H2.796c-1.207 0-1.85 1.475-.973 2.351.25.248.594.404.973.404h7.015c1.208 0 1.85-1.474.973-2.351a1.38 1.38 0 0 0-.973-.404m.136-1.525c.223-1.049.784-2.022 1.49-2.866 2.371-2.843 2.237-3.864 1.786-7.374l-.357-3.007c-.076-.75-.436-1.276-1.047-.95-.277.143-.528.44-.667.865v5.517c0 .37-.303.673-.673.673H8.343a.67.67 0 0 1-.67-.672c0-5.556.041-6.186.046-11.591a29 29 0 0 0-3.146 4.06c-.976 1.537-1.684 3.032-1.672 4.018l.127 11.327zm-.823-8.487h.682v-4.94q-.002-.09.027-.18c.261-.934.888-1.632 1.64-1.904v-1.95c0-.372.302-.674.672-.674h3.425v-2.7c0-.37.3-.672.673-.672h3.421v-2.513c0-.371.303-.673.673-.673h3.425v-2.024c0-.373.3-.673.673-.673h3.422v-1.463c0-.373.302-.673.672-.673h4.098c.371 0 .673.3.673.673V20.9c.37-.174.78-.134 1.182-.134V3.446a1.14 1.14 0 0 0-1.133-1.134H10.257c-.621 0-1.13.513-1.13 1.134zm3.694-7.03c.79.3 1.277 1.093 1.381 2.14.082.811.166 1.523.245 2.157h1.126v-5.57h-2.75zm1.801 5.643c.297 2.332.404 3.645-.304 5.165H27.21c.33-.33.19.003-.314-1.212a8 8 0 0 1-.349-1.032l-.065-.046c-.597 0-1.068.057-1.54-.415a1.4 1.4 0 0 1-.414-1l.003-1.46zm19.985-4.815a5.56 5.56 0 0 1 5.559 5.556 5.559 5.559 0 0 1-11.117 0 5.557 5.557 0 0 1 5.558-5.556m2.978 2.578a4.213 4.213 0 1 0-5.955 5.958 4.213 4.213 0 0 0 5.955-5.958m-11.08.891.045-.046a8.2 8.2 0 0 1 .832-2.005l-.01-.082c-.423-.42-.8-.714-.8-1.381 0-.355.14-.728.415-.997l.875-.874v-9.438h-2.75V28.72zm2.702-5.891c.796.136 1.068.88 1.224.787q.73-.421 1.528-.686V11.758h-2.752zm6.085-.716h-1.393l-.071.068v.54h.003c0 .645-.444 1.217-1.055 1.364-.536.13-1.198.42-1.672.695a1.41 1.41 0 0 1-1.704-.223c-.062-.06-.373-.4-.43-.4v-.004l-.046.022-.986.984v-.003.095l.384.385-.003.002c.455.455.545 1.145.223 1.704a7 7 0 0 0-.695 1.678 1.41 1.41 0 0 1-1.362 1.049c-.087 0-.548-.023-.588.019a.1.1 0 0 0-.02.046v1.393c0 .21.801-.153 1.467.356.242.186.422.447.503.758.158.59.392 1.155.695 1.68a1.4 1.4 0 0 1-.221 1.704c-.068.068-.404.371-.404.43q.001.03.02.047l.986.986c.147.147.454-.676 1.292-.784.3-.042.61.019.888.18a7 7 0 0 0 1.68.694 1.41 1.41 0 0 1 1.048 1.362c0 .088-.02.548.022.589q.016.017.046.019h1.392c.207 0-.155-.8.357-1.466.186-.242.447-.422.758-.504a7 7 0 0 0 1.678-.695 1.41 1.41 0 0 1 1.706.221c.06.063.37.404.43.404a.07.07 0 0 0 .047-.02l.983-.985.003.003-.003-.096-.382-.384a1.405 1.405 0 0 1-.223-1.703c.303-.526.54-1.09.695-1.681a1.41 1.41 0 0 1 1.365-1.047v.003h.54v-.003l.068-.068v-1.393c0-.207-.801.156-1.466-.357a1.42 1.42 0 0 1-.507-.757 7 7 0 0 0-.695-1.678 1.414 1.414 0 0 1 .223-1.706c.06-.06.401-.37.401-.43a.06.06 0 0 0-.02-.046l-.982-.983c-.148-.148-.455.672-1.292.784-.3.038-.613-.02-.891-.18a7 7 0 0 0-1.678-.695 1.41 1.41 0 0 1-1.05-1.365c0-.084.023-.545-.018-.588a.07.07 0 0 0-.047-.02m-12.27-15.92a.672.672 0 0 1 0-1.346h2.54a.673.673 0 0 1 0 1.346zm0 2.961a.672.672 0 0 1 0-1.346h5.201a.673.673 0 0 1 0 1.346zm6.796 0a.673.673 0 0 1 0-1.346h3.157a.673.673 0 0 1 0 1.346zm-2.537-2.961a.67.67 0 0 1-.67-.673c0-.371.3-.673.67-.673h5.694a.673.673 0 0 1 0 1.346zM19.684 9.69l-3.25.027v3.254a3.98 3.98 0 0 0 3.25-3.28M15.087 8.4V5.134a3.98 3.98 0 0 0-3.26 3.34zm1.346-.021 3.24-.027a3.98 3.98 0 0 0-3.24-3.216zm-1.346 4.593V9.739l-3.228.076a3.98 3.98 0 0 0 3.228 3.156m.673-9.24a5.321 5.321 0 1 1 0 10.642 5.321 5.321 0 0 1 0-10.642m3.908 16.046h-2.75v8.942h2.75zm4.097-3.185h-2.752v12.127h2.752z"/></svg>
